set x 50
forward x + 10
right 90
repeat x / 10 [
  forward x - 5
  right 36
]

set x 200
square x

if x > 50 [
    setcolor 3
    square 400
]

setcolor 1
set taille 100
repeat 10 [
    square taille
    mod taille - 10

]