setcolor 3

repeat 4 [
  forward 100
  right 90
]
penup
forward 200
pendown
setcolor 6
repeat 7 [
    forward 100
    right 60
]
penup
setcolor 2
right 180
forward 150
pendown


setcolor 2
repeat 50 [
    forward 200
    right 170
]
penup
setcolor 4
forward 400
pendown

square 50
clear