penup
forward -200
left 90
forward -150
right 90
pendown

repeat 3 [
    save
    setcolor 2
    repeat 8 [
        forward 30
        circle 20
        restore
        right 45
        save
    ]
    restore
    setcolor 3
    right 90
    forward 100
    
    save
    right 45
    forward 20
    circle 15
    restore
    
    left 45
    forward 20
    circle 15
    
    restore
    penup
    forward 150
    pendown
]

penup
right 180
forward 450
left 90
forward 200
left 90
pendown

repeat 4 [
    save
    setcolor 5
    repeat 8 [
        forward 25
        circle 15
        restore
        right 45
        save
    ]
    restore
    setcolor 3
    right 90
    forward 80
    
    save
    right 45
    forward 15
    circle 10
    restore
    
    left 45
    forward 15
    circle 10
    
    restore
    penup
    forward 120
    pendown
]