def carre(taille) {
    repeat 4 [
        forward taille
        right 90
    ]
}


def spirale(taille, angle) {
    if taille > 0 [
        carre(taille)
        right angle
        spirale(taille - 10, angle)
    ]
}

def etoile(taille){
    if taille > 20 [
    repeat 6 [
        carre(taille)
        right 60
    ]
    right 5
    etoile (taille - 5)
    ]
}

setcolor 4
etoile(200)