//Ce fichier sert à illustrer l'utilisation des fonctions et des fonctions save (position) et restore, ainsi que l'aléatoire random

def fleur(taille) {
    set c random(6)
    setcolor c
    save
    repeat 8 [
        forward taille
        circle taille/2
        restore
        right 45
        save
    ]
    restore
    setcolor 3
    right 90
    forward taille*2
    
    // Feuilles
    save
    right 45
    forward taille/2
    triangle taille/3
    restore
    left 45
    forward taille/2
    triangle taille/3
}

// Dessin des fleurs
repeat 40 [
    set taille random(30) + 20
    fleur(taille)
    penup
    set dist random(100) + 50
    forward dist
    left 90
    forward random(100)
    right 90
    pendown
]
